svg/white/x.svg

<?xml version="1.0" encoding="UTF-8"?>
<svg width="32px" height="32px" viewBox="0 0 32 32" version="1.1" xmlns="http://www.w3.org/2000/svg" xmlns:xlink="http://www.w3.org/1999/xlink">
    <!-- Generator: Sketch 52.4 (67378) - http://www.bohemiancoding.com/sketch -->
    <title>svg/white/x</title>
    <desc>Created with Sketch.</desc>
    <g id="white/x" stroke="none" stroke-width="1" fill="none" fill-rule="evenodd">
        <path d="M16,32 C7.163444,32 0,24.836556 0,16 C0,7.163444 7.163444,0 16,0 C24.836556,0 32,7.163444 32,16 C32,24.836556 24.836556,32 16,32 Z M14.1157796,6.00933707 L14.1157796,9.92903828 L15.9962652,11.89169 L15.9962652,6.00933707 L14.1157796,6.00933707 Z M6.01120448,7.99253035 L13.6489262,15.7161531 C13.5275444,15.8450047 13.4042951,15.9719888 13.2791783,16.0971055 L6.01120448,23.4472456 L9.67880486,23.4472456 C9.83380019,23.4435107 9.99066293,23.4565826 10.1456583,23.4379085 C10.4183007,23.4341737 10.6890756,23.4416433 10.9598506,23.4341737 C11.2735761,23.1148459 11.5816993,22.7880486 11.8935574,22.4631186 L14.5714286,19.6694678 C15.0438842,19.1690009 15.5256769,18.6760037 15.9962652,18.1755369 C16.21662,18.3940243 16.4276377,18.6237162 16.6442577,18.8478058 C17.6171802,19.8618114 18.5863679,20.8795518 19.5592904,21.89169 C20.054155,22.4052288 20.5434174,22.9225023 21.038282,23.4341737 C21.3109244,23.4435107 21.5854342,23.4323063 21.8580766,23.4397759 C21.9551821,23.4528478 22.054155,23.4472456 22.1531279,23.4472456 L25.9831933,23.4472456 L25.2922502,22.7507003 L18.5210084,15.9047619 C18.4687208,15.8394024 18.4070962,15.7777778 18.3492063,15.7161531 C18.5863679,15.4696545 18.8291317,15.2250233 19.0718954,14.9822596 C21.3762838,12.6535948 23.6769374,10.3211951 25.9813259,7.99253035 L21.0438842,7.99253035 C20.3305322,8.73576097 19.6190476,9.48085901 18.9038282,10.2222222 C17.9365079,11.2343604 16.9691877,12.2502334 15.9981326,13.2586368 C14.3211951,11.4995331 12.636788,9.74789916 10.9598506,7.99253035 L6.01120448,7.99253035 Z M16,19.5312792 L16.0018674,19.5312792 C15.9981326,21.4976657 15.9981326,23.4640523 15.9981326,25.4304388 L17.8879552,25.4304388 C17.8879552,24.1232493 17.89169,22.8179272 17.8879552,21.5107376 C17.2605042,20.8496732 16.6255836,20.194211 16,19.5312792 Z" id="Combined-Shape" fill="#FFFFFF" fill-rule="nonzero"></path>
    </g>
</svg>

<svg width="32" height="32" viewBox="0 0 32 32" xmlns="http://www.w3.org/2000/svg"><path d="M16 32C7.163 32 0 24.837 0 16S7.163 0 16 0s16 7.163 16 16-7.163 16-16 16zM14.116 6.01v3.919l1.88 1.963V6.009h-1.88zM6.01 7.992l7.638 7.723c-.121.129-.245.256-.37.381l-7.268 7.35h3.67c.155-.003.312.01.467-.01.272-.003.543.005.814-.003.314-.32.622-.646.934-.97l2.677-2.795c.473-.5.955-.993 1.425-1.493.22.218.432.448.648.672.973 1.014 1.942 2.032 2.915 3.044.495.513.984 1.03 1.48 1.542.272.01.546-.002.82.006.096.013.195.007.294.007h3.83l-.69-.696-6.772-6.846c-.052-.066-.114-.127-.172-.189.237-.246.48-.491.723-.734 2.304-2.328 4.605-4.66 6.91-6.99h-4.938c-.713.744-1.425 1.489-2.14 2.23-.967 1.012-1.935 2.028-2.906 3.037-1.677-1.76-3.361-3.511-5.038-5.266H6.01zM16 19.53h.002c-.004 1.967-.004 3.933-.004 5.9h1.89c0-1.308.004-2.613 0-3.92-.627-.661-1.262-1.317-1.888-1.98z" fill="#FFF"/></svg>
